X:1
T:Title
%%score 1 { 2 | 3 }
L:1/8
Q:1/4=107
M:4/4
K:G
V:1 treble nm="Grand Piano, Soprano"
V:2 bass nm="Choir Pad, Bass"
V:3 bass 
V:1
 BA G2 G2 G2 | EF G2 G2 G2 | [B,D]2 [CE]2 [DF]2 [EG]2 | [FA]2 [GB]2- [GB][GB] [FA]2 | %4
w: By~James~Holmes~Rosecrans * * * *||||
 [FA]2 [GB]2 [GB]2 [G^c]2 | [G^c]2 [Fd]6 | [EA][EG] [DF]4 [^CE]2- | [CE]2 D6 | %8
w: ||||
 [B,D][CE] [DF]2 [EG]2 [FA]2 | [GB]2 [Ac]6 | [GB][EA] [DG]4 [DF]2- | [DF]2 [DG]6- | [DG]2 z2 z4 |] %13
w: |||||
V:2
 B,A, G,2 G,2 G,2 | E,F, G,2 G,2 G,2 | D,2 E,2 F,2 G,2 | A,2 B,2- B,B,[K:treble] D2 | %4
 D2 D2 D2 A,2 | A,2 A,6 | A,B, A,4 G,2- | G,2 F,6 | D,E, F,2 G,2 A,2 | B,2[K:treble] C6 | %10
 DC B,4 A,2 | C2 B,6- | B,2 z2 z4 |] %13
V:3
 z8 | z8 | B,,2 C,2 D,2 E,2 | F,2 G,2- G,G, D,2 | D,2 G,2 G,2 E,2 | E,2 D,6 | F,G, z2 z2 A,,2- | %7
 A,,2 D,6 | B,,C, D,2 E,2 F,2 | G,2 A,6 | B,,C, D,4 D,2- | D,2 G,,6- | G,,2 z2 z4 |] %13

